X: 4400
T: "OSBORNE" WALTZ
R: Waltz
%R: waltz
B: James Kerr "Merry Melodies" v.4 p.44 #400
Z: 2016 John Chambers <jc:trillian.mit.edu>
N: Adjusted repeat symbols to match the 1,3 and 2,4 endings.
M: 3/4
L: 1/8
K: D
|:\
A6 | B6 | A2D2E2 | F6 |\
F2E2A,2 | F2E2A,2 |[1,3 E2D2A,2 | A,2D2F2 :|[2,4 D6- | D2z2z2 ::\
fff2A2 | fff2A2 | f2g3^d | e6 |\
eee2A2 | eee2A2 |[1,3 e2f3c | d6 :|[2,4 a2e3f | d2z2z2 :|

%%sep 1 1 500
%%sep 1 1 500

